X: 44
T: 40. SCHOTTISCHE
B: Sam Bayard, "Hill Country Tunes" 1944 #40
S: Played by Mrs Sarah Armstrong, (near) Derry, PA, Nov 18, 1943.
R: shottish
M: 4/4
L: 1/8
Z: 2010 John Chambers <jc:trillian.mit.edu>
K: D
"a."A>A |\
F2d2 F2d2 | c2B2 BABc | d2F2 GFGA | B2A2 AGFE |
D2d2 F2d2 | c2B2 B4 | ABcd efge | f2d2 d2 :: "b."de |
[f2A2][f2A2] [e2A2][e2A2] | d2A2 AFAd | c2EF GFGA | B2A2 AGF[AD] |
[f2A2][f2A2] [e2A2][e2A2] | d2"c."AA AFAd | c2cB AGFE | D2d2 d2 :|
P: Var:
"a."D2 || "b."z2 || "c."A2 |] y8 y8 y8 y8 y8 y8 y8 y8

%%sep 2 1 500
%%sep 1 1 500

